rospo-dark/16x16/actions/align-vertical-top-out.svg

<svg height="16" viewBox="0 0 16 16" width="16" xmlns="http://www.w3.org/2000/svg"><path d="m9 1v2h5v-2zm-8 3v2h14v-2zm1 4v5h5v-5zm7 0v7h5v-7z" fill="#d3dae3"/></svg>

<?xml version="1.0" encoding="UTF-8" standalone="no"?>
<svg xmlns="http://www.w3.org/2000/svg" width="22" height="22" viewBox="0 0 22 22">
 <defs>
  <style type="text/css" id="current-color-scheme">
   .ColorScheme-Text { color:#d3dae3; } .ColorScheme-Highlight { color:#5294e2; }
  </style>
 </defs>
 <path style="fill:currentColor;opacity:1" class="ColorScheme-Text" transform="translate(3 3)" d="M 9 1 L 9 3 L 14 3 L 14 1 L 9 1 z M 1 4 L 1 6 L 15 6 L 15 4 L 1 4 z M 2 8 L 2 13 L 7 13 L 7 8 L 2 8 z M 9 8 L 9 15 L 14 15 L 14 8 L 9 8 z"/>
</svg>
